images/facebook.svg

<svg width="20" height="20" viewBox="0 0 20 20" fill="none" xmlns="http://www.w3.org/2000/svg">
<path d="M2.92969 20H9.45312V12.8906H7.10938V10.5469H9.45312V7.61719C9.45312 6.00174 10.7674 4.6875 12.3828 4.6875H15.3125V7.03125H12.9688C12.3225 7.03125 11.7969 7.55692 11.7969 8.20312V10.5469H15.2068L14.8161 12.8906H11.7969V20H17.0703C18.6858 20 20 18.6858 20 17.0703V2.92969C20 1.31424 18.6858 0 17.0703 0H2.92969C1.31424 0 0 1.31424 0 2.92969V17.0703C0 18.6858 1.31424 20 2.92969 20ZM1.17188 2.92969C1.17188 1.96045 1.96045 1.17188 2.92969 1.17188H17.0703C18.0396 1.17188 18.8281 1.96045 18.8281 2.92969V17.0703C18.8281 18.0396 18.0396 18.8281 17.0703 18.8281H12.9688V14.0625H15.8089L16.5901 9.375H12.9688V8.20312H16.4844V3.51562H12.3828C10.1212 3.51562 8.28125 5.35553 8.28125 7.61719V9.375H5.9375V14.0625H8.28125V18.8281H2.92969C1.96045 18.8281 1.17188 18.0396 1.17188 17.0703V2.92969Z" fill="white"/>
</svg>

<svg width="20" height="20" fill="none" xmlns="http://www.w3.org/2000/svg"><path d="M2.93 20h6.523v-7.11H7.11v-2.343h2.344v-2.93a2.933 2.933 0 012.93-2.93h2.93v2.344h-2.344c-.646 0-1.172.526-1.172 1.172v2.344h3.41l-.39 2.344h-3.02V20h5.273A2.933 2.933 0 0020 17.07V2.93A2.933 2.933 0 0017.07 0H2.93A2.933 2.933 0 000 2.93v14.14A2.933 2.933 0 002.93 20zM1.172 2.93c0-.97.788-1.758 1.758-1.758h14.14c.97 0 1.758.788 1.758 1.758v14.14a1.76 1.76 0 01-1.758 1.758H12.97v-4.765h2.84l.781-4.688H12.97V8.203h3.515V3.516h-4.101A4.106 4.106 0 008.28 7.617v1.758H5.937v4.688h2.344v4.765H2.93a1.76 1.76 0 01-1.758-1.758V2.93z" fill="#fff"/></svg>
